X:5476
T:Redwing
O:england
M:4/4
L:1/8
K:G
|:zD|G3B d3G|cege d3B|cGDc BGDB|
AEFG A3D|G3B d3G|cege d3B|cGDc BGDB|
AEFD G2:|
gf|e2e2egfe|d2B2-Bded|d2A2-Aded|
d2B2-B2gf|e2e2egfe|d2B2-Bded|d2A2-AcBA|
G4-G3
